src/assets/clients/producenterna.svg

<svg width="664" height="181" viewBox="0 0 664 181" fill="none" xmlns="http://www.w3.org/2000/svg">
<path d="M30.4133 11.9326C47.9066 -1.20077 72.5866 -3.22743 92.8266 4.5459C92.8399 19.0792 92.8266 33.6126 92.8266 48.1459C72.0266 36.0659 51.1733 24.0792 30.4133 11.9326Z" fill="black"/>
<path d="M98.0933 6.85254C117.92 16.5192 132.373 36.1059 135.693 57.9192C123.16 65.1859 110.613 72.4525 98.0799 79.7192C98.0799 55.4259 98.0666 31.1459 98.0933 6.85254Z" fill="black"/>
<path d="M0.213259 73.3459C-1.60007 51.3192 8.26659 28.9992 25.3866 15.1326C37.9466 22.3859 50.4933 29.6659 63.0533 36.9459C42.1066 49.0926 21.1733 61.2392 0.213259 73.3459Z" fill="black"/>
<path d="M375.2 60.346C382.667 54.2526 394.253 54.706 401.307 61.266C399.84 62.7193 398.373 64.186 396.92 65.6393C392.84 62.346 387.053 61.1593 382.227 63.506C373.92 67.626 373.48 81.2926 381.36 86.0926C386.4 88.8926 392.733 87.7593 397.067 84.146C398.627 85.706 400.213 87.2526 401.8 88.8126C394.507 95.186 382.587 95.9326 375.067 89.6126C366.973 82.186 367.107 67.7193 375.2 60.346Z" fill="black"/>
<path d="M175.747 56.9859C183.053 57.3726 190.587 56.0259 197.733 57.9859C206.213 60.7726 208.253 73.2126 201.667 78.9726C196.493 83.8392 188.827 81.9592 182.413 82.3059C182.413 85.8659 182.413 89.4259 182.413 92.9859C180.187 92.9859 177.96 92.9859 175.747 92.9859C175.747 80.9859 175.747 68.9859 175.747 56.9859ZM182.413 63.3059C182.413 67.5326 182.413 71.7726 182.413 75.9992C186.333 75.9592 190.28 76.1859 194.187 75.8926C199.747 74.9192 200.653 66.1459 195.507 63.9726C191.293 62.6659 186.76 63.5059 182.413 63.3059Z" fill="black"/>
<path d="M211.747 56.9859C219.267 57.5192 227.2 55.7192 234.44 58.2792C244.187 62.2125 242.867 78.4925 232.347 80.4925C235.96 84.6392 239.653 88.7059 243.147 92.9592C240.4 92.9992 237.64 92.9859 234.893 92.9859C231.573 88.9325 228.16 84.9592 224.733 80.9992C222.627 80.9859 220.52 80.9859 218.413 80.9859C218.413 84.9859 218.413 88.9859 218.413 92.9859C216.187 92.9859 213.96 92.9859 211.747 92.9859C211.747 80.9859 211.747 68.9859 211.747 56.9859ZM218.413 63.3059C218.413 67.2125 218.413 71.1192 218.413 75.0259C222.52 74.8659 226.72 75.4792 230.76 74.6525C235.867 73.1459 235.56 64.5059 230.28 63.5059C226.347 63.0525 222.36 63.3592 218.413 63.3059Z" fill="black"/>
<path d="M260 57.1725C265.613 55.5192 272.16 56.2525 276.867 59.8792C286.027 67.1059 285.973 82.8125 277.08 90.2259C268.987 96.7192 254.933 94.6925 250.133 85.0792C244.68 75.3592 248.693 60.4792 260 57.1725ZM261.533 63.0259C254.347 65.8792 252.747 75.6259 255.96 82.0125C258.92 88.2925 268.187 89.5059 273.2 85.0525C277.96 80.4792 278.213 72.4925 274.893 67.0125C272.253 62.5592 266.173 61.3192 261.533 63.0259Z" fill="black"/>
<path d="M291.747 56.9859C298.733 57.3592 306.093 55.8792 312.773 58.5326C325.667 64.2659 325.6 85.8126 312.707 91.5192C306.067 94.1726 298.707 92.5459 291.747 92.9859C291.747 80.9859 291.747 68.9859 291.747 56.9859ZM298.413 63.2926C298.413 70.9592 298.413 78.6392 298.413 86.3192C302.467 86.0659 306.88 87.1459 310.64 85.1992C317.827 80.7459 317.507 68.1192 309.893 64.2392C306.267 62.7592 302.227 63.4259 298.413 63.2926Z" fill="black"/>
<path d="M330.413 56.986C332.627 56.986 334.853 56.986 337.08 56.986C337.187 64.5326 336.867 72.0926 337.213 79.626C337.24 85.6926 344.6 89.5993 349.813 86.8526C353.013 85.4526 354.28 81.7726 354.373 78.5193C354.507 71.346 354.36 64.1593 354.413 56.986C356.627 56.986 358.853 56.986 361.08 56.986C361.067 63.666 361.093 70.3593 361.093 77.0393C361.147 81.626 360 86.5593 356.573 89.826C351.453 94.466 343.307 94.7726 337.427 91.4526C332.8 88.946 330.533 83.5326 330.44 78.466C330.333 71.306 330.453 64.146 330.413 56.986Z" fill="black"/>
<path d="M409.08 56.986C417.973 56.986 426.853 56.986 435.747 56.986C435.747 59.2126 435.747 61.426 435.747 63.6526C429.08 63.6526 422.413 63.6526 415.747 63.6526C415.747 66.4393 415.747 69.226 415.747 72.0126C422.187 71.9993 428.64 72.026 435.093 71.986C435.053 74.0926 435.027 76.2126 435.013 78.3193C428.587 78.3193 422.173 78.3193 415.747 78.3193C415.747 80.986 415.747 83.6526 415.747 86.3193C422.413 86.3193 429.08 86.3193 435.747 86.3193C435.747 88.546 435.747 90.7593 435.747 92.986C426.853 92.986 417.973 92.986 409.08 92.986C409.08 80.986 409.08 68.986 409.08 56.986Z" fill="black"/>
<path d="M443.747 56.986C445.547 56.986 447.347 56.986 449.147 56.986C455.347 64.3993 461.493 71.866 467.747 79.2393C467.747 71.826 467.747 64.3993 467.747 56.986C469.96 56.986 472.187 56.986 474.413 56.986C474.413 68.986 474.413 80.9726 474.413 92.9726C473.4 92.986 471.387 93.0126 470.373 93.026C463.653 85.0126 457.133 76.8393 450.44 68.7993C450.387 76.866 450.427 84.9193 450.413 92.986C448.187 92.986 445.96 92.986 443.747 92.986C443.747 80.986 443.747 68.986 443.747 56.986Z" fill="black"/>
<path d="M481.8 56.986C491.547 56.986 501.28 56.986 511.027 56.986C511.027 58.9726 511.04 60.9726 511.067 62.9593C507.293 62.9326 503.52 62.946 499.747 62.9326C499.733 72.9593 499.747 82.9726 499.747 92.986C497.52 92.986 495.293 92.986 493.08 92.986C493.08 82.9726 493.08 72.9593 493.08 62.9326C489.293 62.946 485.533 62.9326 481.76 62.9593C481.773 60.9726 481.787 58.9726 481.8 56.986Z" fill="black"/>
<path d="M517.08 56.986C525.973 56.986 534.853 56.986 543.747 56.986C543.733 59.2126 543.733 61.426 543.747 63.6526C537.08 63.6526 530.413 63.6526 523.747 63.6526C523.747 66.4393 523.747 69.226 523.747 72.0126C530.187 71.9993 536.64 72.026 543.093 71.986C543.053 74.0926 543.027 76.2126 543.013 78.3193C536.587 78.3193 530.173 78.3193 523.747 78.3193C523.747 80.986 523.747 83.6526 523.747 86.3193C530.413 86.3193 537.08 86.3193 543.747 86.3193C543.733 88.546 543.733 90.7593 543.747 92.986C534.853 92.986 525.973 92.986 517.08 92.986C517.08 80.986 517.08 68.986 517.08 56.986Z" fill="black"/>
<path d="M551.747 56.9859C559.24 57.5059 567.12 55.7592 574.36 58.2392C584.173 62.1192 582.893 78.4526 572.36 80.5059C575.96 84.6526 579.667 88.7192 583.147 92.9592C580.387 92.9992 577.64 92.9859 574.893 92.9859C571.573 88.9326 568.16 84.9592 564.733 80.9992C562.613 80.9859 560.507 80.9859 558.413 80.9859C558.413 84.9859 558.413 88.9859 558.413 92.9859C556.187 92.9859 553.96 92.9859 551.747 92.9859C551.747 80.9859 551.747 68.9859 551.747 56.9859ZM558.413 63.3059C558.413 67.2126 558.413 71.1192 558.413 75.0259C562.507 74.8659 566.707 75.4659 570.747 74.6526C575.867 73.1726 575.56 64.5059 570.28 63.5059C566.333 63.0659 562.36 63.3592 558.413 63.3059Z" fill="black"/>
<path d="M589.08 56.9859C590.867 56.9859 592.667 56.9859 594.48 56.9725C600.68 64.3992 606.827 71.8659 613.08 79.2392C613.08 71.8259 613.08 64.3992 613.08 56.9859C615.293 56.9859 617.52 56.9859 619.747 56.9859C619.747 68.9859 619.747 80.9725 619.747 92.9725C618.733 92.9859 616.707 92.9992 615.693 93.0125C608.987 84.9992 602.453 76.8392 595.773 68.7992C595.707 76.8659 595.76 84.9192 595.747 92.9859C593.52 92.9859 591.293 92.9859 589.08 92.9859C589.08 80.9859 589.08 68.9859 589.08 56.9859Z" fill="black"/>
<path d="M639.92 56.986C642.387 56.986 644.853 56.986 647.32 56.9993C652.56 69.0393 658 80.986 663.333 92.986C660.867 92.986 658.44 92.986 656 92.986C654.987 90.7593 653.96 88.546 652.947 86.3193C646.693 86.3193 640.44 86.3193 634.2 86.3193C633.213 88.546 632.213 90.746 631.227 92.9593C628.773 92.986 626.307 92.986 623.88 92.986C629.213 80.9726 634.653 69.0126 639.92 56.986ZM636.973 79.9993C641.373 80.0126 645.8 80.0126 650.213 79.9993C647.987 74.826 645.76 69.666 643.6 64.4793C641.48 69.6926 639.16 74.826 636.973 79.9993Z" fill="black"/>
<path d="M0.89325 79.0525C13.3599 71.7192 25.9066 64.5325 38.4132 57.2659C38.3999 82.9725 38.4266 108.693 38.3999 134.399C38.2799 146.466 35.4932 159.239 27.2532 168.466C20.6532 176.026 10.8133 180.119 0.919916 180.839C0.879916 146.919 0.946583 112.986 0.89325 79.0525Z" fill="black"/>
<path d="M73.5066 100.026C94.4399 87.8659 115.387 75.7192 136.36 63.6125C138.133 85.6526 128.293 107.986 111.133 121.826C98.5866 114.559 86.0399 107.293 73.5066 100.026Z" fill="black"/>
<path d="M43.6666 88.7726C64.5866 101.013 85.6933 112.906 106.493 125.346C88.3066 137.626 64.3066 140.373 43.8133 132.493C43.4666 117.933 43.7599 103.346 43.6666 88.7726Z" fill="black"/>
<path d="M283.187 114.319H285.08C285.08 120.986 285.08 127.653 285.08 134.319H283.187C283.08 127.653 283.08 120.986 283.187 114.319Z" fill="black"/>
<path d="M319.373 113.626C324.027 118.879 328.08 124.613 332.48 130.079C332.453 124.826 332.413 119.573 332.52 114.319H334.413C334.387 121.213 334.453 128.093 334.387 134.986C329.6 129.759 325.547 123.919 321.08 118.439C321.08 123.733 321.08 129.026 321.08 134.319H319.187C319.16 127.426 318.907 120.519 319.373 113.626Z" fill="black"/>
<path d="M354.907 115.066C361.547 111.959 370.147 117.453 369.12 124.986C369.173 132.333 360.227 136.679 354.107 133.186C347.067 129.719 347.387 117.773 354.907 115.066ZM354.6 117.133C348.253 120.759 350.667 132.719 358.427 132.493C364.027 133.439 368.347 127.626 367.053 122.413C366.387 116.666 359.187 114.599 354.6 117.133Z" fill="black"/>
<path d="M383.747 114.319C388.467 114.893 394.947 112.479 398.133 117.173C400.893 121.013 397.867 126.506 393.307 126.933C395.453 129.386 397.64 131.826 399.787 134.293C399.173 134.306 397.947 134.333 397.333 134.333C395.187 131.879 393.027 129.413 390.92 126.919C389.16 126.866 387.413 126.826 385.667 126.773C385.693 129.279 385.68 131.799 385.653 134.319H383.747C383.747 127.653 383.747 120.986 383.747 114.319ZM385.653 116.133C385.693 119.093 385.707 122.039 385.707 124.999C388.533 124.959 391.4 125.186 394.213 124.719C397.72 123.719 398.08 118.146 394.867 116.573C391.853 115.853 388.72 116.279 385.653 116.133Z" fill="black"/>
<path d="M412.52 114.346C417.293 114.853 424.04 112.426 427.013 117.546C429.52 121.599 426.227 126.119 422.093 127.106C424.333 129.559 426.6 131.999 428.56 134.693C424.12 134.253 422.413 129.426 419.427 126.746C417.747 126.799 416.08 126.853 414.413 126.893C414.413 129.359 414.413 131.839 414.413 134.319H412.52C412.413 127.666 412.427 120.999 412.52 114.346ZM414.413 116.186C414.413 119.119 414.413 122.053 414.413 124.999C418.267 124.666 425.253 126.666 425.693 120.893C426.013 114.599 418.413 116.306 414.413 116.186Z" fill="black"/>
<path d="M441.853 114.319H443.747C443.747 120.333 443.733 126.359 443.747 132.373C447.507 133.079 452.867 130.586 455.373 134.173C450.867 134.413 446.36 134.319 441.853 134.306C441.76 127.639 441.747 120.973 441.853 114.319Z" fill="black"/>
<path d="M474.813 114.719C475.253 114.506 476.147 114.079 476.587 113.853C479.547 120.879 482.973 127.719 485.72 134.826C483.04 134.333 482.427 131.639 481.4 129.519C477.613 129.519 473.84 129.519 470.067 129.519C468.92 131.453 468.747 134.559 465.88 134.813C468.56 127.999 471.52 121.253 474.813 114.719ZM470.813 127.639C474.093 127.653 477.387 127.653 480.667 127.653C479 123.919 477.373 120.186 475.733 116.439C474.16 120.199 472.48 123.919 470.813 127.639Z" fill="black"/>
<path d="M499.36 113.639C504.213 118.919 508.44 124.733 513.08 130.186C513.08 124.906 513.08 119.613 513.08 114.319H514.973C515.013 121.199 515.227 128.079 514.813 134.959C509.973 129.679 505.693 123.919 501.08 118.453C501.067 123.733 501.08 129.026 501.08 134.319H499.187C499.147 127.426 498.92 120.519 499.36 113.639Z" fill="black"/>
<path d="M529.853 114.333C534.507 114.546 540.2 113.213 543.88 116.893C548.787 121.346 547.68 130.293 541.76 133.346C538 134.919 533.813 134.173 529.853 134.306C529.747 127.653 529.747 120.986 529.853 114.333ZM531.76 116.239C531.733 121.626 531.733 127.013 531.76 132.399C535.08 132.186 538.813 133.026 541.773 131.053C546.133 128.039 546.2 120.679 541.853 117.639C538.893 115.599 535.12 116.439 531.76 116.239Z" fill="black"/>
</svg>

<svg xmlns="http://www.w3.org/2000/svg" fill="none" viewBox="0 0 664 181"><path fill="#000" d="M30.413 11.933C47.907-1.201 72.587-3.227 92.827 4.546c.013 14.533 0 29.067 0 43.6-20.8-12.08-41.654-24.067-62.414-36.213ZM98.093 6.853c19.827 9.666 34.28 29.253 37.6 51.066-12.533 7.267-25.08 14.534-37.613 21.8 0-24.293-.013-48.573.013-72.866ZM.213 73.346C-1.6 51.319 8.267 28.999 25.387 15.133c12.56 7.253 25.106 14.533 37.666 21.813-20.946 12.147-41.88 24.293-62.84 36.4ZM375.2 60.346c7.467-6.093 19.053-5.64 26.107.92-1.467 1.453-2.934 2.92-4.387 4.373-4.08-3.293-9.867-4.48-14.693-2.133-8.307 4.12-8.747 17.787-.867 22.587 5.04 2.8 11.373 1.666 15.707-1.947 1.56 1.56 3.146 3.107 4.733 4.667-7.293 6.373-19.213 7.12-26.733.8-8.094-7.427-7.96-21.894.133-29.267ZM175.747 56.986c7.306.387 14.84-.96 21.986 1 8.48 2.787 10.52 15.227 3.934 20.987-5.174 4.866-12.84 2.986-19.254 3.333v10.68h-6.666v-36Zm6.666 6.32v12.693c3.92-.04 7.867.187 11.774-.106 5.56-.974 6.466-9.747 1.32-11.92-4.214-1.307-8.747-.467-13.094-.667ZM211.747 56.986c7.52.533 15.453-1.267 22.693 1.293 9.747 3.933 8.427 20.214-2.093 22.214 3.613 4.146 7.306 8.213 10.8 12.466-2.747.04-5.507.027-8.254.027-3.32-4.053-6.733-8.027-10.16-11.987-2.106-.013-4.213-.013-6.32-.013v12h-6.666v-36Zm6.666 6.32v11.72c4.107-.16 8.307.453 12.347-.373 5.107-1.507 4.8-10.147-.48-11.147-3.933-.453-7.92-.147-11.867-.2ZM260 57.172c5.613-1.653 12.16-.92 16.867 2.707 9.16 7.227 9.106 22.934.213 30.347-8.093 6.493-22.147 4.466-26.947-5.147-5.453-9.72-1.44-24.6 9.867-27.906Zm1.533 5.854c-7.186 2.853-8.786 12.6-5.573 18.986 2.96 6.28 12.227 7.494 17.24 3.04 4.76-4.573 5.013-12.56 1.693-18.04-2.64-4.453-8.72-5.693-13.36-3.986ZM291.747 56.986c6.986.373 14.346-1.107 21.026 1.547 12.894 5.733 12.827 27.28-.066 32.986-6.64 2.654-14 1.027-20.96 1.467v-36Zm6.666 6.307v23.026c4.054-.253 8.467.827 12.227-1.12 7.187-4.453 6.867-17.08-.747-20.96-3.626-1.48-7.666-.813-11.48-.946ZM330.413 56.986h6.667c.107 7.547-.213 15.107.133 22.64.027 6.067 7.387 9.973 12.6 7.227 3.2-1.4 4.467-5.08 4.56-8.334.134-7.173-.013-14.36.04-21.533h6.667c-.013 6.68.013 13.373.013 20.053.054 4.587-1.093 9.52-4.52 12.787-5.12 4.64-13.266 4.947-19.146 1.627-4.627-2.507-6.894-7.92-6.987-12.987-.107-7.16.013-14.32-.027-21.48ZM409.08 56.986h26.667v6.667h-20v8.36c6.44-.014 12.893.013 19.346-.027-.04 2.107-.066 4.227-.08 6.333h-19.266v8h20v6.667H409.08v-36ZM443.747 56.986h5.4c6.2 7.413 12.346 14.88 18.6 22.253V56.986h6.666v35.987l-4.04.053c-6.72-8.013-13.24-16.187-19.933-24.227-.053 8.067-.013 16.12-.027 24.187h-6.666v-36ZM481.8 56.986h29.227c0 1.987.013 3.987.04 5.973-3.774-.026-7.547-.013-11.32-.026-.014 10.026 0 20.04 0 30.053h-6.667V62.933c-3.787.013-7.547 0-11.32.026l.04-5.973ZM517.08 56.986h26.667c-.014 2.227-.014 4.44 0 6.667h-20v8.36c6.44-.014 12.893.013 19.346-.027-.04 2.107-.066 4.227-.08 6.333h-19.266v8h20c-.014 2.227-.014 4.44 0 6.667H517.08v-36ZM551.747 56.986c7.493.52 15.373-1.227 22.613 1.253 9.813 3.88 8.533 20.214-2 22.267 3.6 4.147 7.307 8.213 10.787 12.453-2.76.04-5.507.027-8.254.027-3.32-4.053-6.733-8.027-10.16-11.987-2.12-.013-4.226-.013-6.32-.013v12h-6.666v-36Zm6.666 6.32v11.72c4.094-.16 8.294.44 12.334-.373 5.12-1.48 4.813-10.147-.467-11.147-3.947-.44-7.92-.147-11.867-.2ZM589.08 56.986c1.787 0 3.587 0 5.4-.014 6.2 7.427 12.347 14.894 18.6 22.267V56.986h6.667v35.986c-1.014.014-3.04.027-4.054.04-6.706-8.013-13.24-16.173-19.92-24.213-.066 8.067-.013 16.12-.026 24.187h-6.667v-36ZM639.92 56.986c2.467 0 4.933 0 7.4.013 5.24 12.04 10.68 23.987 16.013 35.987H656c-1.013-2.227-2.04-4.44-3.053-6.667H634.2c-.987 2.227-1.987 4.427-2.973 6.64-2.454.027-4.92.027-7.347.027 5.333-12.013 10.773-23.973 16.04-36Zm-2.947 23.013c4.4.014 8.827.014 13.24 0-2.226-5.173-4.453-10.333-6.613-15.52-2.12 5.214-4.44 10.347-6.627 15.52ZM.893 79.052c12.467-7.333 25.014-14.52 37.52-21.786-.013 25.706.014 51.427-.013 77.133-.12 12.067-2.907 24.84-11.147 34.067-6.6 7.56-16.44 11.653-26.333 12.373-.04-33.92.027-67.853-.027-101.787ZM73.507 100.026c20.933-12.16 41.88-24.307 62.853-36.413 1.773 22.04-8.067 44.373-25.227 58.213-12.546-7.267-25.093-14.533-37.626-21.8ZM43.667 88.773c20.92 12.24 42.026 24.133 62.826 36.573-18.186 12.28-42.186 15.027-62.68 7.147-.346-14.56-.053-29.147-.146-43.72ZM283.187 114.319h1.893v20h-1.893a623.093 623.093 0 0 1 0-20ZM319.373 113.626c4.654 5.253 8.707 10.987 13.107 16.453-.027-5.253-.067-10.506.04-15.76h1.893c-.026 6.894.04 13.774-.026 20.667-4.787-5.227-8.84-11.067-13.307-16.547v15.88h-1.893c-.027-6.893-.28-13.8.186-20.693ZM354.907 115.066c6.64-3.107 15.24 2.387 14.213 9.92.053 7.347-8.893 11.693-15.013 8.2-7.04-3.467-6.72-15.413.8-18.12Zm-.307 2.067c-6.347 3.626-3.933 15.586 3.827 15.36 5.6.946 9.92-4.867 8.626-10.08-.666-5.747-7.866-7.814-12.453-5.28ZM383.747 114.319c4.72.574 11.2-1.84 14.386 2.854 2.76 3.84-.266 9.333-4.826 9.76 2.146 2.453 4.333 4.893 6.48 7.36-.614.013-1.84.04-2.454.04-2.146-2.454-4.306-4.92-6.413-7.414-1.76-.053-3.507-.093-5.253-.146.026 2.506.013 5.026-.014 7.546h-1.906v-20Zm1.906 1.814c.04 2.96.054 5.906.054 8.866 2.826-.04 5.693.187 8.506-.28 3.507-1 3.867-6.573.654-8.146-3.014-.72-6.147-.294-9.214-.44ZM412.52 114.346c4.773.507 11.52-1.92 14.493 3.2 2.507 4.053-.786 8.573-4.92 9.56 2.24 2.453 4.507 4.893 6.467 7.587-4.44-.44-6.147-5.267-9.133-7.947-1.68.053-3.347.107-5.014.147v7.426h-1.893a664.905 664.905 0 0 1 0-19.973Zm1.893 1.84v8.813c3.854-.333 10.84 1.667 11.28-4.106.32-6.294-7.28-4.587-11.28-4.707ZM441.853 114.319h1.894c0 6.014-.014 12.04 0 18.054 3.76.706 9.12-1.787 11.626 1.8-4.506.24-9.013.146-13.52.133a669.183 669.183 0 0 1 0-19.987ZM474.813 114.719c.44-.213 1.334-.64 1.774-.866 2.96 7.026 6.386 13.866 9.133 20.973-2.68-.493-3.293-3.187-4.32-5.307h-11.333c-1.147 1.934-1.32 5.04-4.187 5.294 2.68-6.814 5.64-13.56 8.933-20.094Zm-4 12.92c3.28.014 6.574.014 9.854.014-1.667-3.734-3.294-7.467-4.934-11.214-1.573 3.76-3.253 7.48-4.92 11.2ZM499.36 113.639c4.853 5.28 9.08 11.094 13.72 16.547v-15.867h1.893c.04 6.88.254 13.76-.16 20.64-4.84-5.28-9.12-11.04-13.733-16.506-.013 5.28 0 10.573 0 15.866h-1.893c-.04-6.893-.267-13.8.173-20.68ZM529.853 114.333c4.654.213 10.347-1.12 14.027 2.56 4.907 4.453 3.8 13.4-2.12 16.453-3.76 1.573-7.947.827-11.907.96a627.274 627.274 0 0 1 0-19.973Zm1.907 1.906a1612.02 1612.02 0 0 0 0 16.16c3.32-.213 7.053.627 10.013-1.346 4.36-3.014 4.427-10.374.08-13.414-2.96-2.04-6.733-1.2-10.093-1.4Z"/></svg>
